X:65
T:Jack Savagorous\.i
R:reel
C:Paul S. Cranford
O:Cape Breton Island
S:http://www.cranfordpub.com
D:currently unrecorded
B:currently unpublished in book form
Z:psc
H:                                                        copyrights Cranford Publications, SOCAN
L:1/8
Q:288
M:C
K:G
A|B<GG>E D>EG>A|G>ed>B c<A A/B/c|dAB<d|c>A d/c/B/A/ B<GG>A|
B<GG>E D>EG>A|G>ed>B c<AA>c|B>dg>e de|d>B d/c/B/A/ B<GG||
||e|d>Bd>g e<cd>c|B>G B/c/d A>E A/B/c|d>Bd>g e<cd>g|e/d/c/B/ A>d B<GG>e|
d>Bd>g e<cd>c|B>G B/c/d A>E A/B/c|(3BGB (3dBd (3ece g>e|d>B d/c/B/A/ B<GG|]
